public/8.svg

<svg width="81" height="108" viewBox="0 0 81 108" fill="none" xmlns="http://www.w3.org/2000/svg">
<g clip-path="url(#clip0_9_84417)">
<path d="M71.8657 48.1922V96.4291L52.3256 85.208C52.2858 84.4792 52.0738 83.77 51.7071 83.1379C51.3403 82.5059 50.829 81.9687 50.2145 81.57C49.0455 80.9004 48.1035 81.4454 48.1035 82.7846L3.21537 56.9992V8.76055C3.16766 8.37247 3.22614 7.97877 3.38458 7.62098C3.54301 7.26319 3.79542 6.95457 4.11545 6.72766C4.37228 6.6106 4.65558 6.56279 4.93684 6.58903C5.21811 6.61528 5.48761 6.71466 5.71807 6.8772L69.3614 43.4311C70.1241 43.9745 70.748 44.6883 71.183 45.5152C71.6179 46.3421 71.8517 47.259 71.8657 48.1922ZM50.4266 58.7613C50.4266 50.5848 44.6598 40.6438 37.5401 36.5556C30.4205 32.4674 24.6562 35.7821 24.6562 43.9586C24.6562 52.135 30.4238 62.076 37.5401 66.1642C44.6565 70.2524 50.4225 66.9368 50.4225 58.7604L50.4266 58.7613Z" fill="white"/>
<path d="M67.1259 98.2442V99.0633C67.1259 99.6324 66.7777 99.8941 66.3485 99.6448L63.7598 98.1594C63.5232 97.991 63.3297 97.7696 63.1947 97.5132C63.0596 97.2569 62.987 96.9725 62.9824 96.6831V95.8673C62.9824 95.2983 63.3306 95.0365 63.7598 95.2858L66.3485 96.7712C66.5847 96.9393 66.7778 97.1601 66.9128 97.4159C67.0478 97.6717 67.1208 97.9553 67.1259 98.2442Z" fill="white"/>
<path d="M52.3259 85.2046L71.866 96.4275V103.063C71.911 103.442 71.8557 103.827 71.7058 104.179C71.5558 104.531 71.3165 104.838 71.011 105.07C70.7512 105.201 70.4605 105.259 70.17 105.237C69.8796 105.215 69.6005 105.115 69.3633 104.947L5.72 68.3932C4.9571 67.8507 4.33294 67.1375 3.89781 66.3111C3.46268 65.4847 3.22874 64.5682 3.21484 63.6354V57L48.1029 82.7854C48.1427 83.5141 48.3545 84.2232 48.7213 84.8551C49.0881 85.4871 49.5995 86.0241 50.214 86.4225C51.3781 87.088 52.3259 86.5438 52.3259 85.2046ZM67.1279 99.0602V98.2411C67.1228 97.9522 67.05 97.6686 66.915 97.4128C66.78 97.157 66.5867 96.9362 66.3505 96.7681L63.762 95.2827C63.3336 95.0334 62.9844 95.2976 62.9844 95.8642V96.68C62.989 96.9694 63.0616 97.2538 63.1967 97.5101C63.3317 97.7665 63.5254 97.9878 63.762 98.1563L66.3505 99.6417C66.7772 99.891 67.1254 99.6293 67.1254 99.0602H67.1279ZM15.4658 69.0835C15.5334 69.0744 15.5334 68.9623 15.4658 68.8742L13.4677 66.2838C13.3942 66.1925 13.3005 66.2007 13.3005 66.293V69.1791C13.3005 69.2763 13.3925 69.3893 13.4677 69.3768L15.4658 69.0835ZM9.70403 65.6683C9.67978 65.217 9.54866 64.7778 9.32157 64.3865C9.09447 63.9951 8.77788 63.6626 8.39722 63.416C7.6749 63.0007 7.09021 63.3329 7.09021 64.1637C7.11439 64.615 7.24537 65.0542 7.47247 65.4456C7.69956 65.8369 8.01651 66.1694 8.39722 66.4159C9.11536 66.8313 9.69974 66.4965 9.69974 65.6683H9.70403Z" fill="#CEE7FD"/>
<path d="M52.3237 85.2048C52.3237 86.544 51.3775 87.0889 50.2126 86.4193C49.5982 86.0208 49.0869 85.4837 48.7201 84.8518C48.3533 84.2199 48.1414 83.5109 48.1016 82.7822C48.1016 81.443 49.0477 80.898 50.2126 81.5676C50.827 81.9662 51.3384 82.5032 51.7052 83.1351C52.0719 83.7671 52.2839 84.4761 52.3237 85.2048Z" fill="white"/>
<path d="M37.5346 36.554C44.6542 40.6422 50.4218 50.584 50.4218 58.7596C50.4218 66.9352 44.6551 70.25 37.5346 66.1618C30.4141 62.0736 24.6504 52.1326 24.6504 43.9562C24.6504 35.7797 30.4183 32.4699 37.5346 36.554ZM43.6904 55.3751C43.9994 55.3294 43.9994 54.8152 43.6904 54.4164L34.5183 42.5297C34.191 42.1068 33.7666 42.131 33.7666 42.5779V55.8071C33.7666 56.2516 34.1918 56.7691 34.5183 56.7209L43.6904 55.3751Z" fill="#005BEA"/>
<path d="M43.6914 54.4145C44.0003 54.8133 44.0003 55.3284 43.6914 55.3732L34.519 56.7183C34.1917 56.7673 33.7676 56.2497 33.7676 55.8044V42.5777C33.7676 42.1308 34.1925 42.1058 34.519 42.5295L43.6914 54.4145Z" fill="white"/>
<path d="M15.4633 68.8744C15.531 68.9625 15.531 69.0754 15.4633 69.0846L13.4658 69.377C13.3923 69.3895 13.2988 69.2765 13.2988 69.1793V66.2932C13.2988 66.1985 13.3898 66.1927 13.4658 66.2841L15.4633 68.8744Z" fill="#005BEA"/>
<path d="M8.39193 63.4156C8.77243 63.6623 9.08913 63.9948 9.31607 64.3862C9.54301 64.7775 9.67377 65.2167 9.69792 65.6679C9.69792 66.4986 9.11341 66.8309 8.39193 66.4155C8.01133 66.169 7.69474 65.8365 7.46779 65.4451C7.24083 65.0537 7.10996 64.6145 7.08594 64.1633C7.08594 63.3367 7.67044 63.0019 8.39193 63.4156Z" fill="#005BEA"/>
<path d="M70.3532 105.954C69.8778 105.942 69.4136 105.807 69.0071 105.562L5.3611 69.0029C4.48988 68.399 3.77626 67.5969 3.27939 66.6633C2.78252 65.7297 2.51685 64.6916 2.50448 63.6353V8.763C2.45242 8.24624 2.54367 7.72518 2.76849 7.25647C2.9933 6.78775 3.34296 6.38933 3.77948 6.10452C4.14161 5.92971 4.54349 5.85252 4.945 5.88066C5.34652 5.90879 5.73359 6.04126 6.06751 6.26486L69.7119 42.8187C70.5828 43.4235 71.2963 44.2261 71.7932 45.16C72.29 46.0939 72.5557 47.1322 72.5685 48.1888V103.062C72.6156 103.564 72.5289 104.071 72.3171 104.529C72.1053 104.988 71.776 105.383 71.362 105.675C71.0576 105.857 70.7088 105.954 70.3532 105.954ZM4.72401 7.28255C4.62843 7.28098 4.53389 7.30326 4.44919 7.34736C4.25082 7.52115 4.09875 7.74103 4.00639 7.98742C3.91402 8.23381 3.8842 8.49909 3.91974 8.75967V63.6328C3.93369 64.4419 4.13489 65.237 4.5075 65.9563C4.8801 66.6757 5.41409 67.3 6.06833 67.7808L69.7127 104.339C69.8452 104.434 69.9995 104.496 70.1616 104.518C70.3237 104.54 70.4887 104.522 70.6421 104.465L70.6521 104.459C70.8408 104.283 70.9846 104.064 71.0717 103.821C71.1588 103.579 71.1868 103.319 71.1532 103.064V48.1938C71.1391 47.3838 70.9378 46.5879 70.5651 45.8676C70.1923 45.1474 69.6582 44.522 69.0038 44.0399L5.36029 7.48609C5.16843 7.36681 4.94979 7.29687 4.72401 7.28255Z" fill="#005BEA"/>
<path d="M43.2933 68.624C41.1286 68.548 39.0215 67.9099 37.1815 66.7731C29.8823 62.5793 23.9434 52.3451 23.9434 43.9576C23.9434 39.7406 25.4098 36.5763 28.0719 35.0468C30.7341 33.5174 34.2197 33.8372 37.8889 35.9449C45.1897 40.137 51.1294 50.372 51.1294 58.7603C51.1294 62.9765 49.6638 66.1409 47.0017 67.6703C45.8725 68.31 44.5926 68.6392 43.2933 68.624ZM31.7838 35.5037C30.7315 35.488 29.6938 35.7512 28.7775 36.2664C26.5722 37.5333 25.3539 40.2649 25.3539 43.9576C25.3539 51.8965 30.9746 61.5849 37.8846 65.5576C41.0996 67.4036 44.0865 67.7177 46.2902 66.4557C48.4939 65.1938 49.714 62.4572 49.714 58.7645C49.714 50.8248 44.0915 41.1364 37.1806 37.1645C35.5573 36.1536 33.6973 35.5812 31.7838 35.5037Z" fill="#005BEA"/>
<path d="M34.4764 57.4284C34.1821 57.4206 33.9003 57.3076 33.6829 57.1102C33.4946 56.9475 33.3422 56.748 33.235 56.524C33.1278 56.3 33.0683 56.0564 33.0601 55.8084V42.5801C33.0482 42.3636 33.1067 42.1491 33.2271 41.9683C33.3474 41.7875 33.5232 41.6501 33.7282 41.5765C33.9811 41.5094 34.249 41.5243 34.4929 41.619C34.7368 41.7137 34.944 41.8834 35.0843 42.1032L44.2573 53.9898C44.429 54.1924 44.5462 54.4351 44.5977 54.6951C44.6493 54.9551 44.6336 55.2238 44.552 55.4761C44.4909 55.6328 44.389 55.7705 44.257 55.8754C44.1251 55.9803 43.9677 56.0486 43.8006 56.0734L34.6258 57.4193C34.5763 57.4259 34.5264 57.429 34.4764 57.4284ZM34.4746 43.6276V55.8084C34.4872 55.8802 34.519 55.9473 34.5665 56.0028L43.0632 54.7566L34.4746 43.6276Z" fill="#005BEA"/>
<path d="M48.1005 83.4876C47.9764 83.4877 47.8546 83.455 47.7474 83.3929L2.85906 57.6074C2.69799 57.5134 2.58097 57.3599 2.53327 57.1803C2.48557 57.0007 2.51105 56.8096 2.60442 56.6487C2.69779 56.4878 2.85133 56.3702 3.03153 56.3215C3.21173 56.2728 3.40413 56.297 3.56648 56.3887L48.4546 82.1741C48.5896 82.2515 48.6952 82.3711 48.7549 82.5143C48.8146 82.6576 48.8252 82.8164 48.7849 82.9662C48.7445 83.116 48.6554 83.2482 48.5316 83.3425C48.4079 83.4368 48.2563 83.4878 48.1005 83.4876Z" fill="#005BEA"/>
<path d="M71.8619 97.1329C71.7378 97.133 71.616 97.1003 71.5088 97.0382L51.9684 85.8145C51.8074 85.7205 51.6903 85.5669 51.6426 85.3873C51.5949 85.2077 51.6204 85.0166 51.7138 84.8557C51.8072 84.6948 51.9607 84.5772 52.1409 84.5285C52.3211 84.4798 52.5135 84.504 52.6759 84.5958L72.216 95.8186C72.3511 95.896 72.4566 96.0156 72.5163 96.1588C72.576 96.3021 72.5866 96.4609 72.5463 96.6107C72.5059 96.7604 72.4168 96.8928 72.293 96.9871C72.1693 97.0814 72.0177 97.1331 71.8619 97.1329Z" fill="#005BEA"/>
<path d="M51.1579 87.4122C50.6989 87.4014 50.2509 87.2707 49.8586 87.0334C49.137 86.5723 48.5366 85.9462 48.1078 85.2072C47.679 84.4683 47.434 83.638 47.3934 82.7857C47.3399 82.3981 47.4036 82.0034 47.5763 81.6519C47.749 81.3004 48.0231 81.0081 48.3634 80.8121C48.7038 80.616 49.095 80.5252 49.4874 80.5512C49.8798 80.5772 50.2555 80.7188 50.5667 80.958C51.2883 81.4191 51.8887 82.0452 52.3175 82.7841C52.7463 83.5231 52.9913 84.3534 53.0319 85.2057C53.0604 85.5904 52.9851 85.9758 52.8141 86.322C52.6431 86.6682 52.3826 86.9629 52.059 87.1755C51.7851 87.3325 51.474 87.4142 51.1579 87.4122ZM49.2715 81.9881C49.2026 81.9858 49.1345 82.0015 49.0737 82.0338C48.973 82.1285 48.8963 82.2457 48.8501 82.3757C48.8039 82.5058 48.7895 82.6449 48.8081 82.7815C48.8459 83.3866 49.0239 83.9748 49.3282 84.5001C49.6324 85.0254 50.0546 85.4736 50.5618 85.8097C50.6538 85.923 50.7833 86 50.9273 86.0266C51.0713 86.0532 51.2201 86.0276 51.3469 85.9546C51.4736 85.8815 51.5699 85.7659 51.6184 85.6284C51.6669 85.4909 51.6644 85.3407 51.6113 85.2049C51.5735 84.5998 51.3956 84.0116 51.0914 83.4863C50.7872 82.9609 50.365 82.5128 49.8578 82.1767C49.6815 82.0664 49.4793 82.0016 49.2715 81.9881Z" fill="#005BEA"/>
<path d="M66.6589 100.445C66.4251 100.441 66.1964 100.377 65.9959 100.257L63.4072 98.7715C63.0633 98.5405 62.7809 98.2301 62.584 97.8668C62.3871 97.5035 62.2815 97.0981 62.2765 96.6854V95.8696C62.2601 95.6271 62.3093 95.3847 62.4188 95.1674C62.5284 94.9502 62.6944 94.7661 62.8996 94.6342C63.0873 94.5318 63.2993 94.4817 63.5132 94.489C63.7272 94.4963 63.935 94.5608 64.1152 94.6758L66.704 96.1612C67.0477 96.3915 67.3301 96.7013 67.527 97.064C67.7239 97.4268 67.8295 97.8317 67.8346 98.2439V99.0631C67.8512 99.3056 67.8021 99.548 67.6925 99.7653C67.583 99.9826 67.4169 100.167 67.2116 100.298C67.0436 100.395 66.853 100.445 66.6589 100.445ZM63.6944 96.059V96.6862C63.7006 96.8522 63.7415 97.0151 63.8145 97.1644C63.8876 97.3138 63.9912 97.4463 64.1187 97.5536L66.4192 98.8745V98.2439C66.413 98.0785 66.3722 97.9162 66.2993 97.7674C66.2264 97.6186 66.1231 97.4867 65.9959 97.3799L63.6944 96.059Z" fill="#005BEA"/>
<path d="M13.455 70.0824C13.2599 70.0809 13.0717 70.0105 12.9239 69.8838C12.8206 69.7971 12.7373 69.6894 12.6797 69.5678C12.622 69.4462 12.5915 69.3137 12.59 69.1793V66.2957C12.587 66.1352 12.6347 65.9779 12.7266 65.8459C12.8184 65.714 12.9498 65.6141 13.1019 65.5605C13.2649 65.5071 13.4405 65.5059 13.6042 65.557C13.7679 65.6081 13.9113 65.709 14.0144 65.8454L16.0187 68.4482C16.116 68.5692 16.18 68.7135 16.204 68.8667C16.228 69.0198 16.2113 69.1766 16.1557 69.3214C16.1053 69.4445 16.0231 69.5522 15.9173 69.6335C15.8116 69.7148 15.6859 69.7667 15.5534 69.7841L13.5661 70.0757C13.5293 70.0805 13.4921 70.0827 13.455 70.0824ZM14.0071 68.1442V68.5869L14.3135 68.5421L14.0071 68.1442Z" fill="#005BEA"/>
<path d="M8.97957 67.3012C8.6477 67.2945 8.32345 67.2011 8.03933 67.0303C7.5498 66.7232 7.14279 66.3021 6.85341 65.8035C6.56404 65.3049 6.401 64.7437 6.3784 64.1683C6.34614 63.8815 6.39861 63.5916 6.52946 63.334C6.66032 63.0765 6.86393 62.8624 7.11518 62.7182C7.36643 62.5739 7.65449 62.5057 7.94412 62.5219C8.23375 62.538 8.51228 62.6379 8.74574 62.8092C9.23496 63.1165 9.64183 63.5377 9.93104 64.0363C10.2202 64.5349 10.3831 65.096 10.4058 65.6712C10.4244 65.9561 10.366 66.2409 10.2366 66.4958C10.1073 66.7507 9.91179 66.9665 9.67029 67.1209C9.46013 67.2406 9.22173 67.3028 8.97957 67.3012ZM7.81548 63.9465C7.80263 64.0198 7.79522 64.094 7.79305 64.1683C7.81582 64.4962 7.91336 64.8145 8.07847 65.0991C8.24358 65.3837 8.4718 65.6271 8.74574 65.8108C8.81271 65.8544 8.88866 65.8828 8.96795 65.8938C8.98097 65.8203 8.98838 65.7458 8.99038 65.6712C8.96771 65.3434 8.87033 65.0251 8.70537 64.7405C8.54041 64.4559 8.31229 64.2125 8.03851 64.0287C7.97166 63.985 7.89481 63.9569 7.81548 63.9465Z" fill="#005BEA"/>
<path d="M18.9396 73.0652C18.7521 73.0652 18.5722 72.9911 18.4396 72.8591C18.3069 72.7272 18.2324 72.5482 18.2324 72.3616V69.5943C18.2324 69.5019 18.2507 69.4103 18.2862 69.325C18.3218 69.2396 18.3739 69.162 18.4396 69.0967C18.5052 69.0314 18.5831 68.9795 18.6689 68.9442C18.7547 68.9088 18.8468 68.8906 18.9396 68.8906C19.0325 68.8906 19.1246 68.9088 19.2104 68.9442C19.2962 68.9795 19.3741 69.0314 19.4397 69.0967C19.5054 69.162 19.5575 69.2396 19.5931 69.325C19.6286 69.4103 19.6469 69.5019 19.6469 69.5943V72.3607C19.647 72.4532 19.6287 72.5448 19.5933 72.6303C19.5578 72.7157 19.5058 72.7934 19.4401 72.8588C19.3745 72.9243 19.2965 72.9761 19.2106 73.0116C19.1247 73.047 19.0326 73.0652 18.9396 73.0652Z" fill="#005BEA"/>
<path d="M20.5666 73.9993C20.3791 73.999 20.1993 73.9248 20.0667 73.7929C19.9341 73.661 19.8596 73.4821 19.8594 73.2956V70.5283C19.8594 70.3415 19.934 70.1625 20.0667 70.0304C20.1994 69.8984 20.3793 69.8242 20.567 69.8242C20.7547 69.8242 20.9348 69.8984 21.0675 70.0304C21.2002 70.1625 21.2748 70.3415 21.2748 70.5283V73.2956C21.2748 73.388 21.2564 73.4796 21.2208 73.5651C21.1852 73.6505 21.1331 73.7281 21.0673 73.7934C21.0015 73.8588 20.9235 73.9106 20.8375 73.9459C20.7516 73.9812 20.6596 73.9994 20.5666 73.9993Z" fill="#005BEA"/>
<path d="M71.0077 105.779C70.8526 105.779 70.7017 105.729 70.5784 105.635C70.455 105.542 70.366 105.41 70.325 105.261C70.284 105.113 70.2931 104.955 70.3513 104.812C70.4095 104.668 70.5134 104.548 70.6469 104.47L76.3921 101.085C76.5833 100.909 76.7293 100.691 76.8176 100.447C76.906 100.203 76.9341 99.9421 76.8998 99.6854V44.8114C76.8855 44.0015 76.6843 43.2057 76.3116 42.4854C75.9389 41.7651 75.4047 41.1398 74.7504 40.6576L11.1068 4.10377C10.9734 4.0075 10.8182 3.94545 10.6549 3.92313C10.4916 3.90082 10.3255 3.91891 10.1709 3.97582L4.42888 7.35541C4.26798 7.45147 4.07536 7.48 3.89331 7.43474C3.71126 7.38948 3.55482 7.27412 3.45825 7.11405C3.36169 6.95397 3.33305 6.76232 3.37854 6.5812C3.42403 6.40008 3.53996 6.24436 3.70086 6.1483L9.45101 2.76374C9.81846 2.5667 10.2331 2.47381 10.65 2.4952C11.0668 2.51659 11.47 2.65142 11.8151 2.88503L75.4576 39.4389C76.3286 40.0436 77.0421 40.8462 77.5389 41.7801C78.0357 42.7141 78.3016 43.7524 78.3144 44.809V99.6821C78.3599 100.184 78.273 100.689 78.0622 101.147C77.8515 101.605 77.5241 102 77.1126 102.294L71.3676 105.679C71.2589 105.744 71.1346 105.778 71.0077 105.779Z" fill="#005BEA"/>
</g>
<defs>
<clipPath id="clip0_9_84417">
<rect width="81" height="108" fill="white"/>
</clipPath>
</defs>
</svg>

<svg xmlns="http://www.w3.org/2000/svg" width="81" height="108" fill="none" viewBox="0 0 81 108"><g clip-path="url(#a)"><path fill="#fff" d="M71.866 48.192V96.43l-19.54-11.221a4.63 4.63 0 0 0-2.111-3.638c-1.17-.67-2.112-.125-2.112 1.215L3.215 56.999V8.761a2.16 2.16 0 0 1 .9-2.033 1.62 1.62 0 0 1 1.603.15L69.361 43.43a6 6 0 0 1 1.822 2.084c.435.827.669 1.744.683 2.677m-21.44 10.57c0-8.177-5.766-18.118-12.886-22.206s-12.884-.774-12.884 7.403 5.768 18.117 12.884 22.205 12.883.773 12.883-7.404zM67.126 98.244v.82c0 .568-.348.83-.778.58L63.76 98.16a1.85 1.85 0 0 1-.778-1.476v-.816c0-.569.349-.83.778-.581l2.589 1.485a1.85 1.85 0 0 1 .777 1.473"/><path fill="#cee7fd" d="m52.326 85.205 19.54 11.222v6.636a2.19 2.19 0 0 1-.855 2.007 1.6 1.6 0 0 1-1.648-.123L5.72 68.393a6 6 0 0 1-1.822-2.082 5.9 5.9 0 0 1-.683-2.676V57l44.888 25.785c.04.73.252 1.438.618 2.07a4.65 4.65 0 0 0 1.493 1.567c1.164.666 2.112.122 2.112-1.217M67.128 99.06v-.819a1.84 1.84 0 0 0-.778-1.473l-2.588-1.485c-.428-.25-.778.015-.778.581v.816a1.84 1.84 0 0 0 .778 1.476l2.588 1.486c.427.249.775-.013.775-.582zM15.466 69.084c.067-.01.067-.122 0-.21l-1.998-2.59c-.074-.092-.168-.083-.168.009v2.886c0 .097.092.21.168.198zm-5.762-3.416a2.86 2.86 0 0 0-1.307-2.252c-.722-.415-1.307-.083-1.307.748a2.86 2.86 0 0 0 1.307 2.252c.718.415 1.303.08 1.303-.748z"/><path fill="#fff" d="M52.324 85.205c0 1.339-.947 1.884-2.111 1.214a4.65 4.65 0 0 1-1.493-1.567 4.6 4.6 0 0 1-.618-2.07c0-1.339.946-1.884 2.11-1.214a4.65 4.65 0 0 1 1.493 1.567c.367.632.579 1.341.619 2.07"/><path fill="#005bea" d="M37.535 36.554c7.12 4.088 12.887 14.03 12.887 22.206s-5.767 11.49-12.887 7.402S24.65 52.132 24.65 43.956s5.768-11.486 12.885-7.402m6.155 18.821c.31-.046.31-.56 0-.959L34.518 42.53c-.327-.423-.751-.399-.751.048v13.23c0 .444.425.961.751.913z"/><path fill="#fff" d="M43.691 54.415c.31.398.31.913 0 .958l-9.172 1.345c-.327.05-.751-.468-.751-.914V42.578c0-.447.425-.472.751-.049z"/><path fill="#005bea" d="M15.463 68.874c.068.089.068.201 0 .21l-1.997.293c-.074.013-.167-.1-.167-.198v-2.886c0-.095.09-.1.167-.009zM8.392 63.416a2.88 2.88 0 0 1 1.306 2.252c0 .83-.585 1.163-1.306.747a2.87 2.87 0 0 1-1.306-2.252c0-.826.584-1.161 1.306-.747"/><path fill="#005bea" d="M70.353 105.954a2.74 2.74 0 0 1-1.346-.392L5.361 69.002a6.65 6.65 0 0 1-2.082-2.339 6.6 6.6 0 0 1-.775-3.028V8.763A2.83 2.83 0 0 1 3.78 6.105a2.31 2.31 0 0 1 2.289.16l63.644 36.554a6.66 6.66 0 0 1 2.081 2.341 6.6 6.6 0 0 1 .775 3.029v54.873a2.878 2.878 0 0 1-1.207 2.613 1.97 1.97 0 0 1-1.008.279M4.724 7.283a.6.6 0 0 0-.275.064 1.6 1.6 0 0 0-.53 1.413v54.873a5.275 5.275 0 0 0 2.149 4.148l63.645 36.558a1 1 0 0 0 .93.126l.01-.006a1.62 1.62 0 0 0 .5-1.395v-54.87a5.26 5.26 0 0 0-.588-2.326 5.3 5.3 0 0 0-1.561-1.828L5.36 7.486a1.4 1.4 0 0 0-.636-.203"/><path fill="#005bea" d="M43.293 68.624a12.46 12.46 0 0 1-6.111-1.85c-7.3-4.195-13.239-14.429-13.239-22.816 0-4.217 1.467-7.382 4.129-8.911 2.662-1.53 6.148-1.21 9.817.898 7.3 4.192 13.24 14.427 13.24 22.815 0 4.217-1.465 7.38-4.127 8.91a7.35 7.35 0 0 1-3.709.954m-11.51-33.12a5.95 5.95 0 0 0-3.006.762c-2.205 1.267-3.423 3.999-3.423 7.692 0 7.939 5.62 17.627 12.53 21.6 3.216 1.846 6.203 2.16 8.406.898s3.424-3.999 3.424-7.692c0-7.94-5.622-17.628-12.533-21.6a11.06 11.06 0 0 0-5.397-1.66"/><path fill="#005bea" d="M34.476 57.428a1.23 1.23 0 0 1-.793-.318 1.8 1.8 0 0 1-.623-1.302V42.58a1.004 1.004 0 0 1 .668-1.003 1.24 1.24 0 0 1 1.356.526l9.173 11.887a1.56 1.56 0 0 1 .295 1.486.95.95 0 0 1-.751.597l-9.175 1.346q-.075.01-.15.01m-.001-13.8v12.18a.4.4 0 0 0 .091.195l8.497-1.246zM48.1 83.488a.7.7 0 0 1-.353-.095L2.86 57.607a.704.704 0 0 1 .707-1.218l44.889 25.785a.705.705 0 0 1 .33.792.7.7 0 0 1-.684.522M71.862 97.133a.7.7 0 0 1-.353-.095l-19.54-11.224a.704.704 0 0 1 .707-1.218l19.54 11.223a.705.705 0 0 1 .33.792.704.704 0 0 1-.684.522"/><path fill="#005bea" d="M51.158 87.412a2.63 2.63 0 0 1-1.3-.379 5.36 5.36 0 0 1-1.75-1.826 5.3 5.3 0 0 1-.715-2.421 1.96 1.96 0 0 1 .97-1.974 1.99 1.99 0 0 1 2.204.146 5.36 5.36 0 0 1 1.75 1.826 5.3 5.3 0 0 1 .715 2.422 2.16 2.16 0 0 1-.973 1.97 1.8 1.8 0 0 1-.901.236m-1.886-5.424a.4.4 0 0 0-.198.046.87.87 0 0 0-.266.747c.038.606.216 1.194.52 1.72a3.94 3.94 0 0 0 1.234 1.309.615.615 0 0 0 1.05-.605 3.92 3.92 0 0 0-1.754-3.028 1.26 1.26 0 0 0-.586-.189M66.659 100.445a1.33 1.33 0 0 1-.663-.188l-2.589-1.486a2.56 2.56 0 0 1-1.13-2.086v-.815a1.36 1.36 0 0 1 .623-1.236 1.2 1.2 0 0 1 1.215.042l2.589 1.485a2.55 2.55 0 0 1 1.13 2.083v.82a1.35 1.35 0 0 1-.622 1.234 1.1 1.1 0 0 1-.553.147m-2.965-4.386v.627a1.2 1.2 0 0 0 .425.868l2.3 1.32v-.63a1.18 1.18 0 0 0-.423-.864zM13.455 70.082a.83.83 0 0 1-.531-.198.94.94 0 0 1-.334-.705v-2.883a.76.76 0 0 1 .512-.736.82.82 0 0 1 .912.285l2.005 2.603a.89.89 0 0 1 .137.873.75.75 0 0 1-.603.463l-1.987.292a1 1 0 0 1-.111.006m.552-1.938v.443l.306-.045zM8.98 67.301a1.9 1.9 0 0 1-.94-.27 3.534 3.534 0 0 1-1.66-2.862 1.48 1.48 0 0 1 .735-1.45 1.5 1.5 0 0 1 1.63.09 3.537 3.537 0 0 1 1.66 2.862 1.59 1.59 0 0 1-.735 1.45c-.21.12-.448.182-.69.18m-1.165-3.355q-.018.111-.022.222a2.15 2.15 0 0 0 .953 1.643.55.55 0 0 0 .222.083q.02-.11.022-.223a2.15 2.15 0 0 0-.951-1.642.5.5 0 0 0-.224-.082M18.94 73.065a.71.71 0 0 1-.708-.703v-2.768a.7.7 0 0 1 .437-.65.71.71 0 0 1 .924.381.7.7 0 0 1 .054.27v2.766a.703.703 0 0 1-.707.704M20.567 74a.71.71 0 0 1-.708-.704v-2.768a.7.7 0 0 1 .708-.704.71.71 0 0 1 .708.704v2.768a.7.7 0 0 1-.437.65.7.7 0 0 1-.271.053"/><path fill="#005bea" d="M71.008 105.779a.71.71 0 0 1-.683-.518.7.7 0 0 1 .322-.791l5.745-3.385a1.61 1.61 0 0 0 .508-1.4V44.811a5.3 5.3 0 0 0-.588-2.326 5.3 5.3 0 0 0-1.562-1.827L11.107 4.104a1 1 0 0 0-.936-.128l-5.742 3.38a.71.71 0 0 1-.97-.242.7.7 0 0 1 .242-.966l5.75-3.384a2.29 2.29 0 0 1 2.364.121l63.643 36.554a6.66 6.66 0 0 1 2.08 2.341 6.6 6.6 0 0 1 .776 3.029v54.873a2.88 2.88 0 0 1-1.201 2.612l-5.745 3.385a.7.7 0 0 1-.36.1"/></g><defs><clipPath id="a"><path fill="#fff" d="M0 0h81v108H0z"/></clipPath></defs></svg>
